X: 627
T: Captain O'Kane
B: O'Neill's 627
Z: 1999 by John Chambers <jc@eddie.mit.edu> http://eddie.mit.edu/~jc/music/abc/
N: "Moderate"
M:6/8
L: 1/16
K:Em
(ED) \
| (B,2E2F2) (G4FE) | (FGAGFE) (D2E2F2) | (G2B2G2) (BAGFED) | (B,2E2).E2 E4(ED) |
| (B,2E2F2) (G4FE) | (FGAGFE) (D2E2F2) | (G2B2).B2 (BAGFED) | (B,2E2).E2 E4 ||
|| (EF) \
| (G2B2).B2 B4(AG) | (F2A2).A2 A4(dc) | (B2e2^d2) (e3fg2) | (B2e2^d2) e4(fg) |
| (g3fe2)  (d3cB2) | (A2F2).d2 (D2E2F2) | (G2B2G2) (BAGFED) | (B,2E2).E2 E4 |]


